X: 264
T: Best of the Banner (reel)
C: BB 1/08
N: 022254
N: Dedicated to the memory of Mary Keating and Nora Flanagan
L: 1/8
M: 4/4
R: reel
Q: 1/4 = 180
K: Em
D|"Em" EDEF "C"GFGA | "G"BedB "Em"edBA | "C"GFGA "Em"Beef | "G"gfed "Bm"B3D |
"Em"EDEF "C"GFGA | "G"Bdeg "Bm"fdBd | "Em"e2 ge bged | "Bm"Bdef "Em"e3 :|
g|"G"bggb "Am"a^gaf | "Em" efge "Bm" fdBd | "Em"e2ge "Am"a2ba | "G"gBde "Bm"f3a|
"G"bggb "Am"a^gaf | "Em"eBdB "D"AGFA | "G"BDGB "Bm" ABdf | "Em" eg"D"fd "Em"e3 :|
%%%%%%%%%%%%%%%%%%%%%%%%%%%%%
